**kern	**kern	**kern	**kern
*staff4	*staff3	*staff2	*staff1
=1-	=1-	=1-	=1-
*clefF4	*clefGv2	*clefGv2	*clefG2
*k[b-]	*k[b-]	*k[b-]	*k[]
*met(C|)	*met(C|)	*met(C|)	*met(C|)
*M2/2	*M2/2	*M2/2	*M2/2
0r	0r	1G	0r
.	.	2G/	.
.	.	2G/	.
=2	=2	=2	=2
0r	0r	2.d\	1d
.	.	4e\	.
.	.	4f\	2d/
.	.	4d\	.
.	.	[2f\	2d/
=3	=3	=3	=3
0r	0r	2f\]	2.a/
.	.	2d\	.
.	.	.	4b\
.	.	1e	1cc
=4	=4	=4	=4
0r	1G	2.d\	1.dd
.	.	4c\	.
.	2G/	2B-\	.
.	2G/	2A/	2cc\
=5	=5	=5	=5
0r	2.d\	2.G/	2b\
.	.	.	2g/
.	4e\	4F/	.
.	1f	2D/	1a
.	.	2d\	.
=6	=6	=6	=6
!!linebreak:default
1C	1.g	2e\	1g
.	.	2c\	.
2C/	.	[1g	1r
2C/	2f\	.	.
=7	=7	=7	=7
2.G\	1e	1g]	2.b\
4A\	.	.	4cc\
1B-	1d	1G	2dd\
.	.	.	2dd\
=8	=8	=8	=8
1.c	1c	2r	1.ee
.	.	4c\	.
.	.	4d\	.
.	1r	4e\	.
.	.	4f\	.
2B-\	.	[2g\	2dd\
=9	=9	=9	=9
1A	2.e\	2g\]	2cc\
.	.	2c\	2a/
.	4f\	.	.
1G	2g\	2d\	1b
.	2g\	2e\	.
=10	=10	=10	=10
1F	1.a	2f\	2.a/
.	.	1F	.
.	.	.	4b\
1r	.	.	1cc
.	2g\	2E/	.
=11	=11	=11	=11
2.A\	2f\	1D	2r
.	2d\	.	2f/
4B-\	.	.	.
2c\	1e	1C	2.g/
2c\	.	.	.
.	.	.	4a/
=12	=12	=12	=12
!!linebreak:default
1.d	[0d	2BB-/	2.b-\
.	.	[2B-\	.
.	.	.	4a/
.	.	4B-\]	4f/
.	.	4A/	4g/
2c\	.	2F/	[2a/
=13	=13	=13	=13
2B-\	0d_	1G	4a/]
.	.	.	4g/
2G\	.	.	1g
1A	.	1D	.
.	.	.	2f#/
=14	=14	=14	=14
0G	0d]	2r	0g
.	.	2G/	.
.	.	2G/	.
.	.	2G/	.
=15	=15	=15	=15
0r	0r	2.d\	2r
.	.	.	2d/
.	.	4e\	.
.	.	4f\	2d/
.	.	4d\	.
.	.	[2f\	2d/
=16	=16	=16	=16
0r	0r	2f\]	2.a/
.	.	2d\	.
.	.	.	4b\
.	.	1e	1cc
=17	=17	=17	=17
0r	1G	2.d\	1.dd
.	.	4c\	.
.	2G/	2B-\	.
.	2G/	2A/	2cc\
=18	=18	=18	=18
!!pagebreak:default
0r	2.d\	2.G/	2b\
.	.	.	2g/
.	4e\	4F/	.
.	1f	2D/	1a
.	.	2d\	.
=19	=19	=19	=19
1C	1.g	2e\	1g
.	.	2c\	.
2C/	.	[1g	1r
2C/	2f\	.	.
=20	=20	=20	=20
2.G\	1e	1g]	2.b\
4A\	.	.	4cc\
1B-	1d	1G	2dd\
.	.	.	2dd\
=21	=21	=21	=21
1.c	1c	2r	1.ee
.	.	4c\	.
.	.	4d\	.
.	1r	4e\	.
.	.	4f\	.
2B-\	.	[2g\	2dd\
=22	=22	=22	=22
1A	2.e\	2g\]	2cc\
.	.	2c\	2a/
.	4f\	.	.
1G	2g\	2d\	1b
.	2g\	2e\	.
=23	=23	=23	=23
1F	1.a	2f\	2.a/
.	.	1F	.
.	.	.	4b\
1r	.	.	1cc
.	2g\	2E/	.
=24	=24	=24	=24
!!linebreak:default
2.A\	2f\	1D	2r
.	2d\	.	2f/
4B-\	.	.	.
2c\	1e	1C	2.g/
2c\	.	.	.
.	.	.	4a/
=25	=25	=25	=25
1.d	[0d	2.BB-/	2.b-\
.	.	4C/	4a/
.	.	4D/	4f/
.	.	4E/	4g/
2c\	.	2F/	[2a/
=26	=26	=26	=26
2B-\	0d]	1G	4a/]
.	.	.	4g/
2G\	.	.	1g
1A	.	1D	.
.	.	.	2f#/
=27	=27	=27	=27
0G	1r	0d	2g/
.	.	.	2.dd\
.	1B-	.	.
.	.	.	4cc\
.	.	.	2b\
=28	=28	=28	=28
0r	2.c\	0r	4a/
.	.	.	4g/
.	.	.	1g
.	4B-\	.	.
.	1A	.	.
.	.	.	2f#/
=29	=29	=29	=29
1r	0G	1.g	0g
1E	.	.	.
.	.	4f\	.
.	.	4e\	.
=30	=30	=30	=30
!!linebreak:default
2.F\	1A	2d\	0r
.	.	2c\	.
4E\	.	.	.
1D	1B-	1f	.
=31	=31	=31	=31
0C	1.c	0e	2g/
.	.	.	2g/
.	.	.	2a/
.	2B-\	.	[2g/
=32	=32	=32	=32
1D	1A	0r	2g/]
.	.	.	2f/
1E	1G	.	1b-
=33	=33	=33	=33
1.F	1F	2c\	1a
.	.	2c\	.
.	1r	2d\	2r
2E\	.	[2c\	2g/
=34	=34	=34	=34
1D	2.A/	2c\]	2f/
.	.	1B-	2d/
.	4B-\	.	.
1C	1c	.	1e
.	.	2A/	.
=35	=35	=35	=35
0BB-	1.d	1.B-	2.d/
.	.	.	4e/
.	.	.	2f/
.	2e\	4A/	2g/
.	.	4G/	.
=36	=36	=36	=36
0r	2f\	2F/	2a/
.	2d\	2B-\	1dd
.	1e	1A	.
.	.	.	2cc#\
=37	=37	=37	=37
!!linebreak:default
0r	1.d	2D/	2.dd\
.	.	2.d\	.
.	.	.	4cc\
.	.	.	2a/
.	.	4e\	.
.	4c\	[2f\	2d/
.	4B-\	.	.
=38	=38	=38	=38
2.D\	0A	2f\]	2.f/
.	.	4e\	.
4E\	.	4d\	4g/
1F	.	1c	4a/
.	.	.	4b\
.	.	.	4cc\
.	.	.	4a/
=39	=39	=39	=39
1.G	0r	2.B-\	2b-\
.	.	.	2g/
.	.	4A/	.
.	.	2G/	2b-\
2A\	.	2F/	[2a/
=40	=40	=40	=40
2B-\	0r	1E	2a/]
2G\	.	.	1g
1A	.	1D	.
.	.	.	2f#/
=41	=41	=41	=41
1.G	0r	2r	2g/
.	.	2.d\	1b-
.	.	4c\	.
4F\	.	4d\	4a/
4E\	.	4e\	4g/
=42	=42	=42	=42
0D	1.d	2f\	2a/
.	.	2d\	2f/
.	.	2f\	2b-\
.	2c\	[2e\	[2a/
=43	=43	=43	=43
!!pagebreak:default
0r	2B-\	4e\]	4a/]
.	.	4d\	4g/
.	4A/	1d	1g
.	4G/	.	.
.	1A	.	.
.	.	2c\	2f#/
=44	=44	=44	=44
1.G	0G	2d\	0g
.	.	2B-\	.
.	.	2e-\	.
2F\	.	[2d\	.
=45	=45	=45	=45
2E\	0r	2d\]	0r
4D\	.	1c	.
4C/	.	.	.
1D	.	.	.
.	.	2Bn\	.
=46	=46	=46	=46
0C	1.e	1c	2.g/
.	.	.	4a/
.	.	1G	2cc\
.	2d\	.	[2b\
=47	=47	=47	=47
0r	2c\	0r	4b\]
.	.	.	4a/
.	4B-\	.	1a
.	4A/	.	.
.	1B-	.	.
.	.	.	2g/
=48	=48	=48	=48
1.A	1A	2.c\	0a
.	.	4d\	.
.	1r	2f\	.
2G\	.	[2e\	.
=49	=49	=49	=49
2F\	0r	2e\]	1r
4E\	.	1d	.
4D\	.	.	.
1E	.	.	1g
.	.	2c#\	.
=50	=50	=50	=50
!!linebreak:default
[0D	1.d	2d\	2.f/
.	.	2A/	.
.	.	.	4g/
.	.	2.f\	2b-\
.	2c\	.	[2a/
.	.	4e\	.
=51	=51	=51	=51
0D_	2B-\	4d\	2a/]
.	.	4c\	.
.	4A/	2.d\	1g
.	4G/	.	.
.	2A/	.	.
.	.	4c\	.
.	2D/	2d\	4f/
.	.	.	4e/
=52	=52	=52	=52
0D_	1.d	2B-\	2.f/
.	.	2A/	.
.	.	.	4g/
.	.	2.f\	2b-\
.	2c\	.	[2a/
.	.	4e\	.
=53	=53	=53	=53
0D]	2B-\	4d\	2a/]
.	.	4c\	.
.	4A/	2.d\	1g
.	4G/	.	.
.	1A	.	.
.	.	4c\	.
.	.	2d\	2f#/
=54	=54	=54	=54
[0G	[0G	1B-	[0g
.	.	1e-	.
=55	=55	=55	=55
0G]	0G]	0d	0g]
==	==	==	==
*-	*-	*-	*-
